64x64/apps/blueman-serial.svg

<svg xmlns="http://www.w3.org/2000/svg" width="64" height="64" version="1">
 <path style="opacity:0.2" d="m 4.0000004,53.168069 0,1.999971 c 0,1.569978 1.2495821,2.83196 2.80076,2.83196 L 57.20004,58 C 58.750017,58 60,56.738018 60,55.16804 l 0,-1.999971 c 0,1.569978 -1.249983,2.831959 -2.79996,2.831959 l -50.3992796,0 c -1.5503779,0 -2.79996,-1.261981 -2.79996,-2.831959 z"/>
 <path style="fill:#b7b7b7" d="m 11.999886,5.0003861 39.999428,0 0,19.9997139 -39.999428,0 z"/>
 <rect style="fill:#4f4f4f" width="56" height="34" x="4" y="23" rx="2.8" ry="2.834"/>
 <g style="opacity:0.4" transform="matrix(1.9999714,0,0,1.9999714,5.760572e-5,-0.9995281)">
  <rect width="16" height="2" x="8" y="16"/>
  <rect width="12" height="2" x="10" y="20"/>
  <rect width="8" height="2" x="12" y="24"/>
 </g>
 <path style="opacity:0.2;fill:#f4f4f7" d="M 12 5 L 12 6 L 52 6 L 52 5 L 12 5 z"/>
</svg>

<svg xmlns="http://www.w3.org/2000/svg" width="64" height="64" version="1"><path style="opacity:.2" d="M4 53.168v2C4 56.738 5.25 58 6.8 58h50.4c1.55 0 2.8-1.262 2.8-2.832v-2C60 54.738 58.75 56 57.2 56H6.8C5.25 56 4 54.738 4 53.168z"/><path style="fill:#b7b7b7" d="M12 5h40v20H12z"/><rect style="fill:#4f4f4f" width="56" height="34" x="4" y="23" rx="2.8" ry="2.834"/><g style="opacity:.4"><path d="M16 31h32v4H16zM20 39h24v4H20zM24 47h16v4H24z"/></g><path style="opacity:.2;fill:#f4f4f7" d="M12 5v1h40V5H12z"/></svg>
